src/img/svg/sports-logo.svg

<svg width="102" height="32" viewBox="0 0 102 32" fill="none" xmlns="http://www.w3.org/2000/svg">
<path fill-rule="evenodd" clip-rule="evenodd" d="M58.6034 22.3285H63.9982L66.0951 13.3744C66.4293 12.1608 66.7618 11.2621 67.2225 10.8283C68.3206 9.79585 71.2701 9.95752 71.2701 9.95752L72.4636 4.89541C70.5914 4.90545 67.693 4.86977 65.8933 5.37264C64.8531 5.66365 63.755 6.47983 63.1313 7.14381C61.9919 8.35638 61.3114 10.8657 61.3114 10.8657L58.6034 22.3285ZM11.9454 9.47584H31.6654C32.8158 9.50539 33.7372 9.95697 34.1625 10.5624C34.6804 11.3005 35.2327 12.4011 34.3811 14.4777C33.4717 16.6949 31.8475 17.3583 30.152 17.4102H26.6212L28.0769 11.1723H22.6467L17.7911 32H23.1924L25.4561 22.3235C25.4561 22.3235 27.0258 22.3301 29.0594 22.3313C30.6301 22.2973 32.4729 22.1083 34.2121 21.1822C36.0925 20.1815 37.3759 18.5113 38.1801 17.016C38.9221 15.6362 39.4002 13.3767 39.512 12.1329C39.6101 11.0447 39.7464 9.21716 38.4423 7.43595C37.8491 6.62534 36.5488 5.63243 35.2316 5.31465C33.7934 4.96845 31.7887 4.94949 31.7887 4.94949H11.2612C8.10173 4.9796 6.42032 6.09627 5.48093 7.07859C4.46631 8.14063 3.94728 9.60184 3.95218 10.8746C3.95709 12.0805 4.27058 13.3622 4.95645 14.1354C5.58016 14.8379 6.62368 15.6167 8.69818 15.7583H12.3014C12.3014 15.7583 12.7992 15.7745 13.0734 15.8994C13.339 16.0215 13.5347 16.3554 13.4883 16.681C13.4316 17.0774 13.3046 17.5791 11.989 17.6338H1.73975L0 22.353H12.2954C13.9332 22.3313 16.9591 22.0196 18.3445 19.5839C18.8602 18.6768 19.3198 16.9804 19.3367 15.721C19.3542 14.4465 18.9246 13.5908 18.6721 13.1531C18.3396 12.5756 17.7093 11.9104 16.445 11.4784C15.7869 11.2532 14.3487 11.2108 14.3487 11.2108H10.9635C10.3087 11.2108 9.80494 11.009 9.872 10.34C9.91017 9.95975 10.2035 9.64588 10.571 9.53605C10.8419 9.4541 11.9454 9.47584 11.9454 9.47584ZM50.9482 8.54983C49.6075 8.56433 48.4446 9.08392 47.3128 10.1995C46.2366 11.2604 45.6614 12.9106 45.548 14.3668C45.4776 15.2672 45.7262 16.521 46.3129 17.2864C46.8886 18.0379 48.0548 18.6083 49.1534 18.5798C50.8201 18.5375 51.9737 18.0168 52.8951 16.9848C53.9768 15.7739 54.6883 13.9576 54.6458 12.2366C54.6223 11.3312 54.4326 10.4085 53.6459 9.60295C52.8575 8.79736 51.7818 8.54091 50.9482 8.54983L51.6477 4.44495C53.883 4.41541 56.3435 5.04092 57.9154 6.59022C59.4883 8.13951 59.8138 10.1906 59.7865 11.8731C59.7527 13.9743 59.039 16.8622 56.5186 19.6424C54.2974 22.0915 50.4324 23.0432 47.7539 22.9189C45.0753 22.7945 43.094 21.9282 41.6394 20.3939C40.3653 19.0504 39.9067 17.481 39.9067 15.4985C39.9067 13.748 40.4536 11.4762 42.0979 9.24002C44.0268 6.61698 47.7179 4.49736 51.6482 4.44551L50.9482 8.54983ZM75.1024 0H80.5408L79.361 4.98016H83.4881L82.353 9.9079H78.2258L77.0024 15.3865C76.8067 16.5026 76.9959 17.0712 77.6147 17.4481C77.8693 17.6036 78.7285 17.6711 78.7285 17.6711H90.4771C91.7878 17.6494 92.7283 17.5284 92.7697 16.6369C92.8144 15.721 91.7005 15.7438 91.7005 15.7438H88.3584C86.6111 15.6546 85.1477 15.1629 84.4493 14.4042C83.8458 13.7485 83.2919 12.774 83.3355 10.8757C83.3846 8.73269 84.493 7.2135 84.9733 6.74465C85.4536 6.27579 87.2299 4.93556 89.8065 4.98016H102L100.304 9.4686H90.3016C89.6468 9.4909 89.3485 9.59069 89.1664 9.82595C88.9767 10.0713 88.8851 10.457 89.0132 10.7642C89.1326 11.0497 89.4287 11.1662 90.2579 11.2108H93.3814C94.9756 11.3 96.301 11.5553 97.0937 12.2377C97.8166 12.8599 98.5134 13.6666 98.5134 15.7438C98.5134 18.0898 97.3816 19.6095 96.6139 20.4112C95.6631 21.4041 94.3426 22.1306 90.3899 22.3318H75.8896C74.3167 22.309 73.0284 22.3764 71.8273 20.9698C70.6262 19.5633 71.0341 17.8055 71.1502 16.8231L75.1024 0Z" fill="black"/>
</svg>

<svg width="102" height="32" fill="none" xmlns="http://www.w3.org/2000/svg"><path fill-rule="evenodd" clip-rule="evenodd" d="M58.603 22.328h5.395l2.097-8.954c.334-1.213.667-2.112 1.127-2.546 1.099-1.032 4.048-.87 4.048-.87l1.194-5.063c-1.873.01-4.771-.025-6.57.478-1.04.29-2.139 1.107-2.763 1.77-1.14 1.213-1.82 3.723-1.82 3.723l-2.708 11.462zM11.945 9.476h19.72c1.15.03 2.072.481 2.498 1.086.517.739 1.07 1.84.218 3.916-.91 2.217-2.534 2.88-4.229 2.932h-3.53l1.455-6.238h-5.43L17.79 32h5.401l2.264-9.677s1.57.007 3.603.008c1.571-.034 3.414-.223 5.153-1.149 1.88-1 3.164-2.67 3.968-4.166.742-1.38 1.22-3.64 1.332-4.883.098-1.088.234-2.916-1.07-4.697-.593-.81-1.893-1.804-3.21-2.121-1.439-.347-3.443-.366-3.443-.366H11.26c-3.16.03-4.84 1.147-5.78 2.13-1.015 1.062-1.534 2.523-1.529 3.796.005 1.206.319 2.487 1.004 3.26.624.703 1.668 1.482 3.742 1.623H12.3s.498.017.772.141a.773.773 0 0 1 .415.782c-.056.396-.183.898-1.499.953H1.739L0 22.353h12.295c1.638-.022 4.664-.333 6.05-2.77.515-.906.975-2.603.992-3.862a4.856 4.856 0 0 0-.665-2.568c-.332-.577-.963-1.243-2.227-1.675-.658-.225-2.096-.267-2.096-.267h-3.386c-.654 0-1.158-.202-1.091-.871.038-.38.332-.694.699-.804.27-.082 1.374-.06 1.374-.06zm39.003-.926c-1.34.014-2.503.534-3.635 1.65-1.076 1.06-1.652 2.71-1.765 4.167-.07.9.178 2.154.765 2.92.576.75 1.742 1.321 2.84 1.293 1.667-.042 2.82-.563 3.742-1.595 1.082-1.211 1.793-3.027 1.75-4.748-.023-.906-.212-1.829-1-2.634-.788-.806-1.863-1.062-2.697-1.053l.7-4.105c2.235-.03 4.695.596 6.267 2.145 1.573 1.55 1.899 3.6 1.871 5.283-.033 2.101-.747 4.99-3.267 7.77-2.222 2.448-6.087 3.4-8.765 3.276-2.679-.125-4.66-.99-6.115-2.525-1.274-1.344-1.732-2.913-1.732-4.895 0-1.751.547-4.023 2.19-6.259 1.93-2.623 5.62-4.743 9.551-4.794l-.7 4.104zM75.102 0h5.439l-1.18 4.98h4.127l-1.135 4.928h-4.127l-1.224 5.479c-.195 1.116-.006 1.684.613 2.061.254.156 1.114.223 1.114.223h11.748c1.31-.022 2.251-.143 2.293-1.034.044-.916-1.07-.893-1.07-.893h-3.342c-1.747-.09-3.21-.581-3.909-1.34-.603-.655-1.157-1.63-1.114-3.528.05-2.143 1.158-3.662 1.638-4.131.48-.47 2.257-1.81 4.834-1.765H102l-1.696 4.489H90.302c-.655.022-.954.122-1.136.357-.19.245-.28.631-.153.938.12.286.416.402 1.245.447h3.123c1.595.089 2.92.344 3.713 1.027.723.622 1.42 1.429 1.42 3.506 0 2.346-1.132 3.866-1.9 4.667-.95.993-2.271 1.72-6.224 1.92h-14.5c-1.573-.022-2.862.045-4.063-1.361-1.2-1.407-.793-3.165-.677-4.147L75.102 0z" fill="#000"/></svg>
